source/img/year/number-icon_year-6.svg

<svg width="164" height="207" viewBox="0 0 164 207" xmlns="http://www.w3.org/2000/svg">
<path d="M85.3 205.568C60.1973 205.568 40.1527 198.075 25.166 183.088C9.05533 166.977 1 142.249 1 108.904C1 76.87 8.77433 50.9243 24.323 31.067C40.059 11.0223 62.7263 1 92.325 1C116.678 1 138.503 8.21234 157.798 22.637L132.227 61.134C118.926 51.2053 105.907 46.241 93.168 46.241C82.1153 46.241 73.498 49.9877 67.316 57.481C61.134 64.9743 57.3873 75.184 56.076 88.11C69.3767 77.994 83.5203 72.936 98.507 72.936C116.678 72.936 132.04 78.4623 144.591 89.515C157.142 100.568 163.418 115.648 163.418 134.756C163.418 156.299 155.925 173.534 140.938 186.46C125.951 199.199 107.405 205.568 85.3 205.568ZM62.82 155.831C67.878 160.702 74.622 163.137 83.052 163.137C91.482 163.137 98.1323 160.795 103.003 156.112C107.874 151.241 110.309 144.966 110.309 137.285C110.309 130.166 107.78 124.172 102.722 119.301C97.664 114.43 90.92 111.995 82.49 111.995C74.06 111.995 67.4097 114.43 62.539 119.301C57.6683 123.984 55.233 130.073 55.233 137.566C55.233 144.872 57.762 150.96 62.82 155.831Z"/>
</svg>

<svg width="164" height="207" viewBox="0 0 164 207" xmlns="http://www.w3.org/2000/svg"><path d="M85.3 205.568c-25.103 0-45.147-7.493-60.134-22.48C9.056 166.977 1 142.249 1 108.904c0-32.034 7.774-57.98 23.323-77.837C40.059 11.022 62.726 1 92.325 1c24.353 0 46.178 7.212 65.473 21.637l-25.571 38.497c-13.301-9.929-26.32-14.893-39.059-14.893-11.053 0-19.67 3.747-25.852 11.24-6.182 7.493-9.929 17.703-11.24 30.629 13.3-10.116 27.444-15.174 42.431-15.174 18.171 0 33.533 5.526 46.084 16.579 12.551 11.053 18.827 26.133 18.827 45.241 0 21.543-7.493 38.778-22.48 51.704-14.987 12.739-33.533 19.108-55.638 19.108zm-22.48-49.737c5.058 4.871 11.802 7.306 20.232 7.306s15.08-2.342 19.951-7.025c4.871-4.871 7.306-11.146 7.306-18.827 0-7.119-2.529-13.113-7.587-17.984-5.058-4.871-11.802-7.306-20.232-7.306s-15.08 2.435-19.951 7.306c-4.87 4.683-7.306 10.772-7.306 18.265 0 7.306 2.529 13.394 7.587 18.265z"/></svg>
